src/assets/icons/Code.svg

<svg width="25" height="25" viewBox="0 0 25 25" fill="none" xmlns="http://www.w3.org/2000/svg">
<path fill-rule="evenodd" clip-rule="evenodd" d="M17.4711 7.55901C17.8616 7.16848 18.4948 7.16848 18.8853 7.55901L22.8853 11.559C23.2759 11.9495 23.2759 12.5827 22.8853 12.9732L18.8853 16.9732C18.4948 17.3637 17.8616 17.3637 17.4711 16.9732C17.0806 16.5827 17.0806 15.9495 17.4711 15.559L20.764 12.2661L17.4711 8.97322C17.0806 8.5827 17.0806 7.94953 17.4711 7.55901Z" fill="#E624BB"/>
<path fill-rule="evenodd" clip-rule="evenodd" d="M6.88533 7.55901C7.27585 7.94953 7.27585 8.5827 6.88533 8.97322L3.59244 12.2661L6.88533 15.559C7.27585 15.9495 7.27585 16.5827 6.88533 16.9732C6.49481 17.3637 5.86164 17.3637 5.47112 16.9732L1.47112 12.9732C1.08059 12.5827 1.08059 11.9495 1.47112 11.559L5.47112 7.55901C5.86164 7.16848 6.49481 7.16848 6.88533 7.55901Z" fill="#E624BB"/>
<path fill-rule="evenodd" clip-rule="evenodd" d="M14.9763 3.31166C15.5034 3.47639 15.7972 4.03727 15.6325 4.56441L10.6325 20.5644C10.4677 21.0916 9.90687 21.3853 9.37973 21.2206C8.85258 21.0559 8.55879 20.495 8.72352 19.9679L13.7235 3.96786C13.8883 3.44072 14.4491 3.14692 14.9763 3.31166Z" fill="#E624BB"/>
</svg>

<svg xmlns="http://www.w3.org/2000/svg" width="25" height="25" fill="none"><path fill="#E624BB" fill-rule="evenodd" d="M17.471 7.559a1 1 0 0 1 1.414 0l4 4a1 1 0 0 1 0 1.414l-4 4a1 1 0 0 1-1.414-1.414l3.293-3.293-3.293-3.293a1 1 0 0 1 0-1.414Zm-10.586 0a1 1 0 0 1 0 1.414l-3.293 3.293 3.293 3.293a1 1 0 1 1-1.414 1.414l-4-4a1 1 0 0 1 0-1.414l4-4a1 1 0 0 1 1.414 0Zm8.091-4.247a1 1 0 0 1 .656 1.252l-5 16a1 1 0 0 1-1.908-.596l5-16a1 1 0 0 1 1.252-.656Z" clip-rule="evenodd"/></svg>
